icons/copilot-warning-16.svg

<svg width="16" height="16" viewBox="0 0 16 16" fill="none" xmlns="http://www.w3.org/2000/svg">
<path fill-rule="evenodd" clip-rule="evenodd" d="M7.86079 1.76951C7.91028 1.82253 7.95663 1.8773 8 1.93369C8.04336 1.8773 8.08972 1.82253 8.13921 1.76951C8.82116 1.03885 9.87702 0.870609 11.0828 1.00459C12.3131 1.14128 13.2283 1.53235 13.8072 2.26517C14.3725 2.98069 14.5 3.87928 14.5 4.75C14.5 5.21339 14.4653 5.67879 14.3451 6.10888C13.9119 5.8475 13.4429 5.63934 12.9473 5.49344C12.9809 5.29786 13 5.05449 13 4.75C13 3.98435 12.8774 3.50794 12.6303 3.19506C12.3967 2.89947 11.9369 2.60872 10.9172 2.49541C9.87298 2.37939 9.42884 2.58615 9.23579 2.79299C9.03195 3.01139 8.87725 3.47136 8.99421 4.40697C9.05402 4.88552 9.16638 5.26779 9.32639 5.56499C8.14474 5.96469 7.12813 6.72245 6.40569 7.70916C5.92566 7.90352 5.37217 8 4.75 8C4.09776 8 3.51325 7.91839 3.0231 7.70875L3 7.82426V12.0853C3.02086 12.0976 3.04268 12.1103 3.06543 12.1234C3.32878 12.2749 3.71567 12.4794 4.19916 12.6846C4.59656 12.8532 5.05487 13.0203 5.56004 13.1589C5.77061 13.7868 6.08221 14.3684 6.47552 14.8843C5.35549 14.7161 4.37511 14.3886 3.61334 14.0654C3.06559 13.8331 2.62435 13.6001 2.31739 13.4235C2.16373 13.3351 2.0432 13.2605 1.95925 13.2067C1.91725 13.1799 1.88437 13.1581 1.86101 13.1425L1.83316 13.1236L1.82736 13.1196L1.81237 13.1095C1.79971 13.1009 1.7818 13.0887 1.75941 13.0732C1.71466 13.0423 1.65169 12.9982 1.57651 12.9439C1.42716 12.8361 1.2249 12.6845 1.01986 12.5137C0.819 12.3463 0.595113 12.1436 0.414932 11.9334C0.3249 11.8284 0.230849 11.7043 0.156031 11.5671C0.0857453 11.4383 0 11.2396 1.90735e-06 11L0 9.73607C0 8.69445 0.588507 7.74222 1.52017 7.27639L1.5865 7.24322L1.75413 6.40507C1.55295 5.89712 1.5 5.32203 1.5 4.75C1.5 3.87928 1.62745 2.98069 2.19275 2.26517C2.77172 1.53235 3.68694 1.14128 4.91717 1.00459C6.12298 0.870609 7.17884 1.03885 7.86079 1.76951ZM6.76421 2.79299C6.57116 2.58615 6.12702 2.37939 5.08282 2.49541C4.06305 2.60872 3.60327 2.89947 3.36974 3.19506C3.12255 3.50794 3 3.98435 3 4.75C3 5.54231 3.12905 5.92077 3.3082 6.12041C3.47045 6.30122 3.82768 6.5 4.75 6.5C5.60367 6.5 6.08903 6.2644 6.38811 5.95907C6.70349 5.63711 6.91507 5.13277 7.00579 4.40697C7.12274 3.47136 6.96805 3.01139 6.76421 2.79299Z" fill="black"/>
<path fill-rule="evenodd" clip-rule="evenodd" d="M8.49808 14.8107C9.25887 15.3996 10.2135 15.75 11.25 15.75C13.7353 15.75 15.75 13.7353 15.75 11.25C15.75 9.60094 14.863 8.15906 13.54 7.37546C12.8692 6.9781 12.0862 6.75 11.25 6.75C10.417 6.75 9.63686 6.97634 8.96772 7.37087C7.64049 8.15343 6.75 9.59772 6.75 11.25C6.75 12.0589 6.96343 12.818 7.33706 13.4739C7.63262 13.9928 8.02841 14.4472 8.49808 14.8107ZM10.5 8.75C10.5 8.33579 10.8366 8 11.2508 8C11.6647 8.00044 12 8.33606 12 8.75V11C12 11.4142 11.6642 11.75 11.25 11.75C10.8358 11.75 10.5 11.4142 10.5 11V8.75ZM11.25 14.5C11.8023 14.5 12.25 14.0523 12.25 13.5C12.25 12.9477 11.8023 12.5 11.25 12.5C10.6977 12.5 10.25 12.9477 10.25 13.5C10.25 14.0523 10.6977 14.5 11.25 14.5Z" fill="black"/>
</svg>

<svg xmlns="http://www.w3.org/2000/svg" width="16" height="16" viewBox="0 0 16 16"><path fill-rule="evenodd" d="M7.86 1.77c.05.053.097.107.14.164.043-.057.09-.111.14-.164.681-.731 1.737-.9 2.943-.765 1.23.136 2.145.527 2.724 1.26.566.716.693 1.614.693 2.485 0 .463-.035.929-.155 1.359a5.967 5.967 0 00-1.398-.616c.034-.195.053-.439.053-.743 0-.766-.123-1.242-.37-1.555-.233-.296-.693-.586-1.713-.7-1.044-.116-1.488.091-1.681.298-.204.218-.359.678-.242 1.614.06.479.172.86.332 1.158a6.014 6.014 0 00-2.92 2.144C5.926 7.904 5.372 8 4.75 8c-.652 0-1.237-.082-1.727-.291L3 7.824v4.261c.02.013.043.025.065.038a10.84 10.84 0 002.495 1.035c.21.629.522 1.21.916 1.726a11.91 11.91 0 01-2.863-.819 12.06 12.06 0 01-1.296-.641 8.815 8.815 0 01-.456-.281l-.028-.02-.006-.003-.015-.01a7.077 7.077 0 01-.235-.166c-.15-.108-.352-.26-.557-.43a5.19 5.19 0 01-.605-.58 2.167 2.167 0 01-.259-.367A1.19 1.19 0 010 11V9.736a2.75 2.75 0 011.52-2.46l.067-.033.167-.838C1.553 5.897 1.5 5.322 1.5 4.75c0-.87.127-1.77.693-2.485.579-.733 1.494-1.124 2.724-1.26 1.206-.134 2.262.034 2.944.765zM6.765 2.793c-.193-.207-.637-.414-1.681-.298-1.02.114-1.48.404-1.713.7-.247.313-.37.79-.37 1.555 0 .792.129 1.17.308 1.37.162.181.52.38 1.442.38.854 0 1.339-.236 1.638-.54.315-.323.527-.827.618-1.553.117-.936-.038-1.396-.242-1.614z"/><path fill-rule="evenodd" d="M8.498 14.81a4.5 4.5 0 105.504-7.121 4.5 4.5 0 00-5.504 7.122zM10.5 8.75a.75.75 0 011.5 0V11a.75.75 0 01-1.5 0V8.75zm.75 5.75a1 1 0 100-2 1 1 0 000 2z"/></svg>
